Numix-GalliumOS/64/actions/stock_addressbook.svg

<?xml version="1.0" encoding="UTF-8" standalone="no"?>
<svg
   xmlns:dc="http://purl.org/dc/elements/1.1/"
   xmlns:cc="http://creativecommons.org/ns#"
   xmlns:rdf="http://www.w3.org/1999/02/22-rdf-syntax-ns#"
   xmlns:svg="http://www.w3.org/2000/svg"
   xmlns="http://www.w3.org/2000/svg"
   xmlns:sodipodi="http://sodipodi.sourceforge.net/DTD/sodipodi-0.dtd"
   xmlns:inkscape="http://www.inkscape.org/namespaces/inkscape"
   width="64"
   height="64"
   viewBox="0 0 64 64"
   id="svg2"
   version="1.1"
   inkscape:version="0.91 r13725"
   sodipodi:docname="address-book-new.svg">
  <metadata
     id="metadata14">
    <rdf:RDF>
      <cc:Work
         rdf:about="">
        <dc:format>image/svg+xml</dc:format>
        <dc:type
           rdf:resource="http://purl.org/dc/dcmitype/StillImage" />
      </cc:Work>
    </rdf:RDF>
  </metadata>
  <defs
     id="defs12" />
  <sodipodi:namedview
     pagecolor="#ffffff"
     bordercolor="#666666"
     borderopacity="1"
     objecttolerance="10"
     gridtolerance="10"
     guidetolerance="10"
     inkscape:pageopacity="0"
     inkscape:pageshadow="2"
     inkscape:window-width="807"
     inkscape:window-height="480"
     id="namedview10"
     showgrid="false"
     inkscape:zoom="3.6875"
     inkscape:cx="32"
     inkscape:cy="32"
     inkscape:window-x="0"
     inkscape:window-y="27"
     inkscape:window-maximized="0"
     inkscape:current-layer="svg2" />
  <path
     style="fill:#6c71c4;fill-rule:evenodd"
     d="M 11 0 L 53 0 C 60 0 60 0 60 7.109375 L 60 56.890625 C 60 64 60 64 53 64 L 11 64 C 4 64 4 64 4 56.890625 L 4 7.109375 C 4 0 4 0 11 0 Z "
     id="path4" />
  <path
     style="fill:#2d2d2d;fill-opacity:.533"
     d="M 22.289062 16.246094 C 20.738281 21.777344 20.703125 29.4375 23.46875 33.214844 C 24.628906 35.007812 26.21875 37.363281 24.972656 39.507812 C 22.675781 42.855469 18.84375 44.660156 15.355469 46.480469 C 14.167969 46.605469 14.597656 47.707031 14.515625 48.523438 C 14.515625 49.171875 14.324219 50.019531 15.269531 49.714844 L 48.730469 49.714844 C 49.675781 50.019531 49.484375 49.171875 49.484375 48.523438 C 49.402344 47.707031 49.832031 46.605469 48.644531 46.480469 C 45.15625 44.660156 41.324219 42.855469 39.027344 39.507812 C 37.78125 37.363281 39.371094 35.007812 40.53125 33.214844 C 43.453125 29.101562 43.835938 20.152344 41.703125 16.121094 C 39.777344 12.621094 37.832031 10.800781 32 10.667969 C 26.15625 10.902344 24.222656 12.621094 22.289062 16.246094 Z "
     id="path6" />
</svg>

<svg xmlns="http://www.w3.org/2000/svg" viewBox="0 0 64 64">
 <path d="M 11 0 L 53 0 C 60 0 60 0 60 7.109375 L 60 56.890625 C 60 64 60 64 53 64 L 11 64 C 4 64 4 64 4 56.890625 L 4 7.109375 C 4 0 4 0 11 0 Z " style="fill:#6c71c4;fill-rule:evenodd"/>
 <path d="m 22.289 16.246 c -1.551 5.531 -1.586 13.191 1.18 16.969 c 1.16 1.793 2.75 4.148 1.504 6.293 c -2.297 3.348 -6.129 5.152 -9.617 6.973 c -1.188 0.125 -0.758 1.227 -0.84 2.043 c 0 0.648 -0.191 1.496 0.754 1.191 l 33.461 0 c 0.945 0.305 0.754 -0.543 0.754 -1.191 c -0.082 -0.816 0.348 -1.918 -0.84 -2.043 c -3.488 -1.82 -7.32 -3.625 -9.617 -6.973 c -1.246 -2.145 0.344 -4.5 1.504 -6.293 c 2.922 -4.113 3.305 -13.06 1.172 -17.09 c -1.926 -3.5 -3.871 -5.32 -9.703 -5.453 c -5.844 0.234 -7.777 1.953 -9.711 5.578 Z" style="fill:#2d2d2d;fill-opacity:0.533"/>
</svg>
